X: 320
T: Da Lieshen  Tuguen
%%abc-version 2.0
%%abcx-abcm2ps-target-version 5.9.1 (29 Sep 2008)
%%abc-creator hum2abc beta
%%abcx-conversion-date 2013/10/02 07:52:30
%%abc-edited-by Helmut Schaffrath
%%humdrum-veritas 1977827556
%%humdrum-veritas-data 2853980292
%%continueall 1
%%barnumbers 0
L: 1/16
M: 2/4
K: Bb
c'2 f'2 d'2 d' c' [I:setbarnb 1]| 
f'2 b2c'4 | 
g2 g b g2 g f | 
g f e df4 | 
f2 g2 f g f d | 
c c c d2< f'2 d' | 
d'2c'6 | 
c' f' c' b g b g f | 
e2> f2 b3 g | 
f g f d2< c2 B | 
c8 |]  



